X:675
T:
N:
S:Ur en notbok i Gotlands fornsal.
R:kadrilj
O:Gotland
M:2/4
L:1/16
K:Bb
F2|BcBA Bdfd|b2bf d3B|g2ge c3A|BABc d2F2|BcBA Bdfd|b2bf d3B|g2ge c3A|B4
z2::F2|d4 cdAc|B4 g3e|c2c2 cBcd|BABc d2F2|c4 BdAc|B4 g3e|c2c2 cBcd|B4
z2::F2|c6 de|fgfe d2B2|b2f2 edcB|c2g2f2e2|d4 ceAc|B4 g3e|c2c2 cBcd|B4 z2:|

